; generated using https://github.com/Stypox/text-to-gcode
G0 X101.32 Y76.03
G1 X101.32 Y76.03
G0 X101.32 Y74.28
G1 X101.32 Y69.82
G1 X101.25 Y69.08
G1 X101.05 Y68.63
G1 X100.74 Y68.41
G1 X100.34 Y68.36
G1 X100.00 Y68.37
G0 X102.82 Y72.14
G1 X106.62 Y72.14
G1 X106.49 Y73.08
G1 X106.11 Y73.78
G1 X105.51 Y74.23
G1 X104.72 Y74.38
G1 X103.95 Y74.23
G1 X103.35 Y73.78
G1 X102.96 Y73.08
G1 X102.82 Y72.14
G1 X102.96 Y71.19
G1 X103.37 Y70.48
G1 X103.99 Y70.04
G1 X104.81 Y69.89
G1 X105.42 Y69.97
G1 X105.93 Y70.22
G1 X106.31 Y70.61
G1 X106.52 Y71.15

G0 X113.62 Y71.15
G1 X113.80 Y70.60
G1 X114.12 Y70.20
G1 X114.68 Y69.99
G1 X115.34 Y69.89
G1 X116.00 Y69.99
G1 X116.51 Y70.27
G1 X116.83 Y70.69
G1 X116.94 Y71.22
G1 X116.85 Y71.66
G1 X116.59 Y71.99
G1 X116.13 Y72.15
G1 X114.53 Y72.30
G1 X114.08 Y72.45
G1 X113.80 Y72.79
G1 X113.71 Y73.27
G1 X113.81 Y73.73
G1 X114.11 Y74.08
G1 X114.58 Y74.30
G1 X115.19 Y74.38
G1 X115.80 Y74.30
G1 X116.35 Y74.12
G1 X116.65 Y73.81
G1 X116.79 Y73.32
G0 X118.44 Y74.27
G1 X118.44 Y71.44
G1 X118.54 Y70.87
G1 X118.73 Y70.28
G1 X119.04 Y70.02
G1 X119.62 Y69.89
G1 X120.00 Y69.92
G1 X120.38 Y70.05
G1 X120.76 Y70.39
G1 X121.11 Y70.97
G1 X121.53 Y71.77
G0 X121.53 Y70.00
G1 X121.53 Y74.27
G0 X123.03 Y76.03
G1 X123.03 Y76.03
G0 X123.03 Y74.27
G1 X123.03 Y70.00
G0 X124.53 Y71.15
G1 X124.71 Y70.60
G1 X125.03 Y70.20
G1 X125.59 Y69.99
G1 X126.25 Y69.89
G1 X126.91 Y69.99
G1 X127.42 Y70.27
G1 X127.74 Y70.69
G1 X127.85 Y71.22
G1 X127.76 Y71.66
G1 X127.50 Y71.99
G1 X127.04 Y72.15
G1 X125.44 Y72.30
G1 X124.99 Y72.45
G1 X124.71 Y72.79
G1 X124.62 Y73.27
G1 X124.72 Y73.73
G1 X125.02 Y74.08
G1 X125.49 Y74.30
G1 X126.10 Y74.38
G1 X126.71 Y74.30
G1 X127.26 Y74.12
G1 X127.56 Y73.81
G1 X127.70 Y73.32

G0 X134.85 Y71.53
G1 X135.29 Y70.68
G1 X135.65 Y70.30
G1 X136.02 Y70.06
G1 X136.38 Y69.93
G1 X136.72 Y69.89
G1 X137.43 Y70.05
G1 X137.94 Y70.49
G1 X138.26 Y71.19
G1 X138.37 Y72.09
G1 X138.24 Y73.04
G1 X137.88 Y73.76
G1 X137.34 Y74.22
G1 X136.67 Y74.38
G1 X135.99 Y74.26
G1 X135.29 Y73.82
G1 X134.85 Y73.38
G1 X134.85 Y74.27
G1 X134.85 Y68.24
G0 X140.00 Y73.19
G1 X140.47 Y74.09
G1 X141.68 Y74.38
G1 X142.44 Y74.27
G1 X142.95 Y73.95
G1 X143.23 Y73.45
G1 X143.32 Y72.79
G1 X143.32 Y70.00
G0 X143.32 Y70.99
G1 X142.88 Y70.55
G1 X142.44 Y70.22
G1 X142.02 Y70.02
G1 X141.61 Y69.92
G1 X141.19 Y69.89
G1 X140.67 Y69.97
G1 X140.25 Y70.22
G1 X139.97 Y70.60
G1 X139.87 Y71.09
G1 X140.03 Y71.74
G1 X140.50 Y72.23
G1 X142.37 Y72.64
G1 X143.32 Y72.64
G0 X144.82 Y71.53
G1 X145.26 Y70.68
G1 X145.62 Y70.30
G1 X145.99 Y70.06
G1 X146.35 Y69.93
G1 X146.69 Y69.89
G1 X147.40 Y70.05
G1 X147.91 Y70.49
G1 X148.23 Y71.19
G1 X148.34 Y72.09
G1 X148.21 Y73.04
G1 X147.85 Y73.76
G1 X147.31 Y74.22
G1 X146.64 Y74.38
G1 X145.96 Y74.26
G1 X145.26 Y73.82
G1 X144.82 Y73.38
G1 X144.82 Y74.27
G1 X144.82 Y68.24
G0 X149.97 Y73.19
G1 X150.44 Y74.09
G1 X151.65 Y74.38
G1 X152.41 Y74.27
G1 X152.92 Y73.95
G1 X153.20 Y73.45
G1 X153.29 Y72.79
G1 X153.29 Y70.00
G0 X153.29 Y70.99
G1 X152.85 Y70.55
G1 X152.41 Y70.22
G1 X151.99 Y70.02
G1 X151.58 Y69.92
G1 X151.16 Y69.89
G1 X150.64 Y69.97
G1 X150.22 Y70.22
G1 X149.94 Y70.60
G1 X149.84 Y71.09
G1 X150.00 Y71.74
G1 X150.47 Y72.23
G1 X152.34 Y72.64
G1 X153.29 Y72.64



G0 X111.00 Y68.03
G1 X111.00 Y62.00
G0 X111.00 Y65.10
G1 X111.44 Y65.64
G1 X111.85 Y66.02
G1 X112.24 Y66.25
G1 X112.60 Y66.35
G1 X112.93 Y66.38
G1 X113.50 Y66.26
G1 X113.92 Y65.95
G1 X114.10 Y65.60
G1 X114.25 Y64.83
G1 X114.25 Y62.00
G0 X117.65 Y66.38
G1 X118.44 Y66.23
G1 X119.04 Y65.79
G1 X119.42 Y65.08
G1 X119.55 Y64.14
G1 X119.41 Y63.19
G1 X119.03 Y62.48
G1 X118.43 Y62.04
G1 X117.65 Y61.89
G1 X116.87 Y62.04
G1 X116.27 Y62.48
G1 X115.88 Y63.18
G1 X115.75 Y64.14
G1 X115.88 Y65.09
G1 X116.26 Y65.79
G1 X116.87 Y66.23
G1 X117.65 Y66.38
G0 X124.57 Y68.03
G1 X124.57 Y62.00
G0 X124.57 Y62.89
G1 X124.13 Y62.45
G1 X123.43 Y62.01
G1 X122.75 Y61.89
G1 X122.08 Y62.05
G1 X121.54 Y62.51
G1 X121.18 Y63.23
G1 X121.05 Y64.18
G1 X121.16 Y65.08
G1 X121.48 Y65.78
G1 X121.99 Y66.22
G1 X122.70 Y66.38
G1 X123.04 Y66.34
G1 X123.40 Y66.21
G1 X123.77 Y65.97
G1 X124.13 Y65.59
G1 X124.57 Y64.74
G0 X126.07 Y68.03
G1 X126.07 Y68.03
G0 X126.07 Y66.27
G1 X126.07 Y62.00
G0 X127.57 Y68.03
G1 X127.57 Y62.00
G0 X127.57 Y62.89
G1 X128.01 Y62.45
G1 X128.71 Y62.01
G1 X129.39 Y61.89
G1 X130.06 Y62.05
G1 X130.60 Y62.51
G1 X130.96 Y63.23
G1 X131.09 Y64.18
G1 X130.98 Y65.08
G1 X130.66 Y65.78
G1 X130.15 Y66.22
G1 X129.44 Y66.38
G1 X129.10 Y66.34
G1 X128.74 Y66.21
G1 X128.37 Y65.97
G1 X128.01 Y65.59
G1 X127.57 Y64.74
G0 X132.72 Y65.19
G1 X133.19 Y66.09
G1 X134.40 Y66.38
G1 X135.16 Y66.27
G1 X135.67 Y65.95
G1 X135.95 Y65.45
G1 X136.04 Y64.79
G1 X136.04 Y62.00
G0 X136.04 Y62.99
G1 X135.60 Y62.55
G1 X135.16 Y62.22
G1 X134.74 Y62.02
G1 X134.33 Y61.92
G1 X133.91 Y61.89
G1 X133.39 Y61.97
G1 X132.97 Y62.22
G1 X132.69 Y62.60
G1 X132.59 Y63.09
G1 X132.75 Y63.74
G1 X133.22 Y64.23
G1 X135.09 Y64.64
G1 X136.04 Y64.64
G0 X137.54 Y68.03
G1 X137.54 Y62.00
G0 X137.54 Y62.89
G1 X137.98 Y62.45
G1 X138.68 Y62.01
G1 X139.36 Y61.89
G1 X140.03 Y62.05
G1 X140.57 Y62.51
G1 X140.93 Y63.23
G1 X141.06 Y64.18
G1 X140.95 Y65.08
G1 X140.63 Y65.78
G1 X140.12 Y66.22
G1 X139.41 Y66.38
G1 X139.07 Y66.34
G1 X138.71 Y66.21
G1 X138.34 Y65.97
G1 X137.98 Y65.59
G1 X137.54 Y64.74
G0 X142.69 Y65.19
G1 X143.16 Y66.09
G1 X144.37 Y66.38
G1 X145.13 Y66.27
G1 X145.64 Y65.95
G1 X145.92 Y65.45
G1 X146.01 Y64.79
G1 X146.01 Y62.00
G0 X146.01 Y62.99
G1 X145.57 Y62.55
G1 X145.13 Y62.22
G1 X144.71 Y62.02
G1 X144.30 Y61.92
G1 X143.88 Y61.89
G1 X143.36 Y61.97
G1 X142.94 Y62.22
G1 X142.66 Y62.60
G1 X142.56 Y63.09
G1 X142.72 Y63.74
G1 X143.19 Y64.23
G1 X145.06 Y64.64
G1 X146.01 Y64.64



G0 X111.00 Y54.00
G1 X111.00 Y60.04
G1 X113.85 Y54.00
G1 X116.69 Y60.04
G1 X116.69 Y54.00
G0 X118.19 Y60.03
G1 X118.19 Y60.03
G0 X118.19 Y58.27
G1 X118.19 Y54.00
G0 X119.69 Y58.04
G1 X119.69 Y54.00
G0 X119.69 Y56.50
G1 X120.11 Y57.30
G1 X120.46 Y57.88
G1 X120.84 Y58.22
G1 X121.22 Y58.35
G1 X121.60 Y58.38
G1 X122.18 Y58.25
G1 X122.49 Y57.99
G1 X122.68 Y57.40
G1 X122.78 Y56.83
G1 X122.78 Y54.00
G0 X124.28 Y58.27
G1 X126.10 Y54.00
G1 X127.91 Y58.27
G0 X129.54 Y57.19
G1 X130.01 Y58.09
G1 X131.22 Y58.38
G1 X131.98 Y58.27
G1 X132.49 Y57.95
G1 X132.77 Y57.45
G1 X132.86 Y56.79
G1 X132.86 Y54.00
G0 X132.86 Y54.99
G1 X132.42 Y54.55
G1 X131.98 Y54.22
G1 X131.56 Y54.02
G1 X131.15 Y53.92
G1 X130.73 Y53.89
G1 X130.21 Y53.97
G1 X129.79 Y54.22
G1 X129.51 Y54.60
G1 X129.41 Y55.09
G1 X129.57 Y55.74
G1 X130.04 Y56.23
G1 X131.91 Y56.64
G1 X132.86 Y56.64
G0 X134.36 Y58.27
G1 X136.44 Y53.92
G0 X134.66 Y52.38
G1 X134.83 Y52.36
G1 X135.00 Y52.36
G1 X135.46 Y52.46
G1 X135.83 Y52.75
G1 X136.15 Y53.24
G1 X136.44 Y53.92
G1 X138.00 Y58.27
G0 X139.50 Y58.27
G1 X139.50 Y55.44
G1 X139.60 Y54.87
G1 X139.79 Y54.28
G1 X140.10 Y54.02
G1 X140.68 Y53.89
G1 X141.06 Y53.92
G1 X141.44 Y54.05
G1 X141.82 Y54.39
G1 X142.17 Y54.97
G1 X142.59 Y55.77
G0 X142.59 Y54.00
G1 X142.59 Y58.27
